!!!OTL: Exultet 1
!!!SMS: Napoli, Biblioteca Nazionale
**kern	**silbe
*	*LLatin
*staff14	*staff14
!N1	!N1
=1-	=1-
*clefGv2	*
*k[]	*
4F	E-
(8G	XUL
8A)	.
4G	-TET
8G	IAM
8F	an-
=2-	=2-
(8F	-ge-
8G)	.
8G	-li-
(16G	-ca
16F)	.
(8G	tur-
8A)	.
(8A	-ba
8G)	.
=3-	=3-
4F	ce-
(8G	-lo-
8A	.
4G)	.
4F	-rum.
=4-	=4-
4F	e-
(8G	xul
8A)	.
8G	-tent
8F	.
4G	di-
=5-	=5-
(4G	-vi-
4A)	.
(8A	-na
8G)	.
4F	my-
=6-	=6-
(8G	-ste-
8A)	.
(4G	-ri-
4F)	.
4F	-a.
=7-	=7-
8F	et
8F	pro
8A	tan-
16G	-ti
16F	.
8G	re-
8G	-gis
8F	vic-
(16F	-to-
16G)	.
=8-	=8-
8G	-ri-
8G	-a
8G	tu-
8F	-ba
8G	in-
8F	-to-
(16G	-net
16A	.
16G	.
16A)	.
=9-	=9-
8G	.
8F	.
(16F	sa-
16G	.
8A)	.
(16G	-lu-
16A	.
8G)	.
8F	-ta-
8F	-ris.
=10-	=10-
(8G	Gau-
8A)	.
8G	-de-
8G	-at
8G	se
8G	tan-
8F	-tis
(16F	tel-
16G)	.
=11-	=11-
8G	-lus
8G	ir-
8G	-ra-
8G	-di-
(8G	-a-
8A)	.
(8A	-ta
8G)	.
=12-	=12-
4F	ful-
(8G	-go-
8A)	.
(8G	-ri-
8F)	.
4F	-bus.
=13-	=13-
8F	et
8F	e-
8A	-ter-
8G	-ni
(16F	re-
16G)	.
8G	-gis
4G	splen-
=14-	=14-
(4G	-do-
8A)	.
(4A	-re
8G)	.
4F	lu-
=15-	=15-
(4G	-stra-
4A	.
4G)	.
4F	-ta.
=16-	=16-
8F	to-
8A	-ti-
8G	-us
8G	or-
8G	-bis
8F	se
(8F	sen-
8G)	.
=17-	=17-
8G	-ti-
8G	-at
8G	a-
8F	-mi-
(8G	-sis-
8A)	.
(8G	.
8A)	.
=18-	=18-
8G	.
8F	.
(8F	-se
8A)	.
(16G	ca-
16A	.
16G)	.
16F	-li-
8F	-gi-
8F	-nem.
=19-	=19-
(16G	Le-
16A)	.
8G	-te-
8G	-tur
8G	et
8G	ma-
8G	-ter
8F	ec-
(16F	-cle-
16G)	.
=20-	=20-
16G	-si-
8G	-a
16G	tan-
16F	-ti
(16F	lu-
16G)	.
16G	-mi-
8G	-nis
16G	a-
16G	-dor-
(16G	-na-
16A)	.
(16A	-ta
16G)	.
=21-	=21-
4F	ful-
(8G	-go-
8A	.
4G)	.
4F	-re.
=22-	=22-
8F	et
8A	mag-
8G	-nis
8G	po-
8G	-pu-
8G	-lo-
8F	-rum
(16F	vo-
16G)	.
=23-	=23-
8G	-ci-
8G	-bus
8F	hec
(8G	au-
8A)	.
(8G	.
8A)	.
8G	.
=24-	=24-
8F	.
4A	-la
(8G	re-
8A	.
8G)	.
8F	-sul-
8F	-tet.
=25-	=25-
(8G	Qua-
8A)	.
8G	prop
8G	-ter
8G	a-
8G	-stan-
8G	-ti-
8F	-bus
=26-	=26-
(8F	vo-
&(8G&))	.
4G	-bis
(8G	fra-
8A)	.
(8A	-tres
8G)	.
=27-	=27-
4F	ka-
(8G	-ris-
8A)	.
(8G	-si-
8F)	.
4F	-mi.
=28-	=28-
8F	ad
8A	tam
8G	mi-
8G	-ram
8G	sanc-
8F	-ti
(8F	hu-
8G)	.
=29-	=29-
8G	-ius
8G	lu-
4G	-mi-
(8G	-nis
8A)	.
(8A	cla-
8G)	.
=30-	=30-
4F	-ri-
(8G	-ta-
8A	.
4G)	.
4F	-tem.
=31-	=31-
8A	u-
8G	-na
(16F	me-
16G)	.
8G	-cum
8G	que-
8G	-so
8G	de-
8G	-i
=32-	=32-
16G	om-
16G	-ni-
16F	-po-
(16F	-ten-
16G)	.
16G	-tis
16G	mi-
16G	-se-
16F	-ri-
16G	-cor-
8F	-di-
(16G	-am
16A	.
16G	.
16A)	.
=33-	=33-
16G	.
8F	.
(16F	in-
8A)	.
(8G	-vo-
8A	.
8G)	.
8F	-ca-
8F	-te.
=34-	=34-
(16G	Ut
16A)	.
16G	qui
8G	me
16G	non
8G	me-
16F	-is
(16F	me-
16G)	.
8G	-ri-
8G	-tis
16G	in
=35-	=35-
8G	le-
8G	-vi-
16G	-ta-
8F	-rum
(16F	nu-
16G)	.
16G	-me-
8G	-ro
8G	dig-
16G	-na-
16G	-tus
=36-	=36-
(16G	est
8A)	.
(16A	ag-
8G)	.
8F	-gre-
(16G	-ga-
16A	.
8G)	.
4F	-re.
=37-	=37-
4A	lu-
4G	-mi-
4F	-nis
(8F	su-
8G)	.
=38-	=38-
4G	-i
4G	gra-
(8G	-ti-
8A)	.
(8A	-am
8G)	.
=39-	=39-
4F	in-
(8G	-fun-
8A	.
4G)	.
4F	-dens.
=40-	=40-
4A	ce-
8G	-re-
8F	-i
8G	hu-
8F	-ius
(8F	lau-
8G)	.
=41-	=41-
8G	-dem
8F	im-
(8G	-ple-
8A)	.
(8G	.
8A)	.
8G	.
8F	.
=42-	=42-
(8F	-re
8A)	.
(8G	pre-
8A	.
8G)	.
8F	-ci-
8F	-pi-
8F	-at.
=43-	=43-
(16G	Per
16A)	.
8G	do-
8G	-mi-
8F	-num
(16F	no-
16G)	.
8G	-strum
8G	ie-
8F	-sum
=44-	=44-
(8F	chri-
8G)	.
4G	-stum
(8G	fi-
8A)	.
(8A	-li-
8G)	.
=45-	=45-
4F	-um
(8G	su-
8A	.
4G)	.
4F	-um.
=46-	=46-
8F	vi-
8A	-ven-
8G	-tem
(16F	se-
16G)	.
8G	-cum
8G	ad-
8G	-que
8F	reg-
=47-	=47-
(16F	-nan-
16G)	.
8G	-tem
16G	in
16G	u-
8G	-ni-
8G	-ta-
8G	-te
16G	spi-
16G	-ri-
(16G	-tus
16A)	.
=48-	=48-
(8A	sanc-
&(8G&))	.
8F	-ti
(8G	de-
8A	.
8G)	.
4F	-um
=49-	=49-
8F	per
8G	om-
8F	-ni-
8F	-a
8G	se-
8F	-cu-
(8G	-la
8A	.
=50-	=50-
8G	.
8A)	.
8G	.
8F	.
(8F	se-
8A)	.
(16G	-cu-
8A	.
16G)	.
=51-	=51-
4F	-lo-
4F	-rum.
4E	a-
4E	-men.
=52-	=52-
8F	Do-
(8G	-mi-
8A)	.
(8A	-nus
8B	.
8A)	.
(8G	vo-
8A)	.
=53-	=53-
8G	.
8F	.
(8G	-bi-
8A	.
8G)	.
8F	-scum.
8F	Et
(8G	cum
=54-	=54-
8A)	.
8B	spi-
8A	-ri-
8G	-tu
(8G	tu-
8A)	.
(8G	-o.
8F)	.
=55-	=55-
(16F	Sur-
16G	.
16A)	.
16B	.
8A	-sum
(16G	.
16A)	.
16G	.
8F	.
(16G	cor-
16A	.
8G)	.
16F	-da.
=56-	=56-
8F	Ha-
(8G	-be-
8A)	.
8A	-mus
4A	ad
(8B	do-
8A)	.
=57-	=57-
(4G	-mi-
4A)	.
(4G	-num.
4F)	.
=58-	=58-
(16F	Gra-
16G	.
16A)	.
(16G	-ti-
16F)	.
(16F	-as
16G)	.
(16A	a-
16G)	.
(16B	-ga-
16A)	.
(16G	-mus
16A)	.
(16G	do-
16A	.
16B)	.
=59-	=59-
16A	-mi-
(8G	-no
8F)	.
(16F	de-
8G)	.
(16G	-o
8A)	.
(16G	no-
8A)	.
8G	-stro.
=60-	=60-
(16F	Dig-
16G	.
16A)	.
16B	.
8A	-num
16A	et
(16B	iu-
8A)	.
(16G	-stum
8A)	.
(16G	est.
8F)	.
=61-	=61-
(16F	Ve-
16G	.
16A)	.
8A	-re
8G	qui-
(16A	-a
8G)	.
(8A	dig-
8B)	.
8A	-num
=62-	=62-
8A	et
(16A	iu-
8B)	.
(16A	-stum
8G)	.
8G	est.
8F	per
8G	chri-
8F	-stum
=63-	=63-
(16G	do-
16A)	.
(16G	.
16A)	.
16G	.
8F	.
(16F	-mi-
16A)	.
(16G	-num
16A	.
16G)	.
8F	no-
8F	-strum.
=64-	=64-
(16G	Qui
16A)	.
16G	nos
8G	ad
8G	noc-
8F	-tem
(16F	i-
16G)	.
8G	-stam
16G	non
8G	te-
=65-	=65-
8F	-ne-
(16F	-bra-
16G)	.
8G	-rum
8G	sed
16G	lu-
8G	-mi-
16F	-nis
(16F	ma-
16G)	.
8G	-trem.
=66-	=66-
8G	per-
16G	-du-
(16G	-ce-
8A)	.
(16A	-re
16G)	.
8F	dig-
(16G	-na-
8A)	.
(16G	-tus
16F)	.
16F	est.
=67-	=67-
16F	in
8F	qua
16F	e-
8A	xor
8G	-ta
8G	est
8F	ab
(16F	in-
16G)	.
16G	-fe-
16G	-ris
=68-	=68-
8G	in
8G	e-
8G	-ter-
16F	-na
(16F	di-
16G)	.
8G	-e
16G	re-
8F	-sur-
16G	rec
16F	-ti-
=69-	=69-
(16G	-o
16A	.
16G	.
16A)	.
16G	.
8F	.
8A	mor-
(16G	-tu-
16A	.
8G)	.
16F	-o-
8F	-rum.
=70-	=70-
(32G	So-
32A)	.
32G	-lu-
16G	-tis
32G	quip-
16F	-pe
(32F	ne-
32G)	.
32G	xi
16G	-bus.
16G	et
16G	cal-
32G	-ca-
16G	-to
(32G	mor-
32A)	.
(32A	-tis
16G)	.
32F	e-
(32G	-cu-
16A)	.
(32G	-le-
32F)	.
32F	-o.
=71-	=71-
16F	re-
16F	-sur-
8A	-re-
16G	-xit
16F	a
(16F	mor-
16G)	.
16G	-tu-
8G	-is.
16F	qui
(16F	fu-
16G)	.
16G	-e-
16G	-rat
=72-	=72-
16G	in-
8F	-ter
(16G	mor-
16A)	.
(16G	.
16A)	.
(16G	.
16F)	.
(16G	-tu-
16A)	.
(16G	-os
16A	.
16G)	.
16F	li-
16F	-ber.
=73-	=73-
(16G	Un-
16A)	.
8G	-de
8G	et
8G	nox
8G	ip-
8G	-sa
8F	si-
(16F	-de-
16G)	.
=74-	=74-
8G	-re-
8G	-o
8G	pro
8G	ec-
8G	-cle-
8G	-si-
(8G	-a-
8A)	.
=75-	=75-
(8A	-rum
8G)	.
8F	or-
(8G	-na-
8A	.
8G)	.
4F	-tu.
=76-	=76-
8F	ce-
8F	-re-
4A	-o-
8G	-rum
8F	splen-
(8F	-do-
8G)	.
=77-	=77-
8G	-re
8G	tam-
8F	-quam
(8F	di-
8G)	.
8G	-es
8G	il-
8G	-lu-
=78-	=78-
8G	-mi-
(16G	-na-
8A)	.
(16A	-ta
8G)	.
8F	col-
(16G	-lu-
16A	.
8G)	.
8F	-cet.
=79-	=79-
8F	qui-
8F	-a
8F	in
8A	e-
8G	-ius
8G	ma-
8F	-tu-
(16F	-ti-
16G)	.
=80-	=80-
8G	-no
8G	re-
8G	-sur-
8G	-gen-
8F	-te
(16F	chri-
16G)	.
8G	-sto.
8G	mors
=81-	=81-
16G	oc-
8G	-ci-
(16G	-dit
8A)	.
(16A	re-
16G)	.
8F	-demp-
(16G	-to-
16A	.
8G)	.
8F	-rum.
=82-	=82-
4F	et
4F	e-
4G	me(r
4F	-sit)
=83-	=83-
(8G	vi-
8A	.
8G	.
8A)	.
8G	.
8F	.
(8G	-ta
8A)	.
=84-	=84-
(8G	cre-
8A	.
8G)	.
8F	-den-
4F	-ti-
4F	-um.
=85-	=85-
(16G	Ve-
16A)	.
8G	-re
8G	tu
8G	pre-
8G	-ti-
(16G	-o-
8A)	.
(16A	-sus
8G)	.
=86-	=86-
8F	es
(16G	o-
8A)	.
(16G	-pi-
8F)	.
8F	-fex
8F	for-
(8G	-ma-
8A)	.
=87-	=87-
(8A	-tor
8G)	.
8F	es
(8G	om-
8A)	.
(8G	-ni-
8F)	.
8F	-um.
=88-	=88-
4F	cu-
4F	-i
4A	qua-
8G	-li-
8G	-tas
=89-	=89-
8G	in
8F	a-
(8F	-gen-
8G)	.
8G	-di
8G	non
(8G	fu-
8A)	.
=90-	=90-
(8A	-it
8G)	.
8F	of-
(8G	-fi-
8A)	.
(8G	-ci-
8F)	.
8F	-o.
=91-	=91-
4G	sed
4G	in
4F	ser-
(8G	-mo-
8A)	.
=92-	=92-
(8G	.
8A)	.
8G	.
8F	.
(8G	-nis
4A)	.
(8G	im-
=93-	=93-
8A	.
8G)	.
4F	-pe-
4F	-ri-
4F	-o.
=94-	=94-
(16G	Qui
8A)	.
8G	or-
16G	-na-
8G	-tum
16G	at-
8G	-que
16G	ha-
8G	-bi-
8F	-tum
=95-	=95-
(16F	mun-
16G)	.
8G	-di.
16G	nec
16G	ad
8G	am-
8F	-pli-
(16F	-an-
8G)	.
16G	-dum
16G	qua-
16G	-si
=96-	=96-
(16G	i-
8A)	.
(16A	-nops
8G)	.
8F	po-
(16G	-ten-
8A)	.
(16G	-ti-
8F)	.
8F	-e.
=97-	=97-
8F	nec
8F	ad
8G	di-
4A	-tan-
8G	-dum
8G	qua-
8G	-si
=98-	=98-
8F	e-
(8F	-ge-
8G)	.
8G	-nus
8G	glo-
8F	-ri-
(16G	-e
16A	.
16G	.
16A)	.
=99-	=99-
16G	.
8F	.
(16G	con-
8A)	.
(8G	-di-
8A	.
8G)	.
8F	-di-
8F	-sti.
=100-	=100-
(16G	To-
16A)	.
8G	-tus
(16G	ac
16A)	.
(16A	ple-
16G)	.
8F	-nus
(16G	in
16A)	.
(16G	te
16F)	.
8F	es
=101-	=101-
8F	qui
8F	dum
8F	per
8F	vir-
8A	-gi-
8G	-ne-
8F	-a
(16F	vi-
16G)	.
=102-	=102-
8G	-sce-
8G	-ra
(16G	mun-
16A)	.
(16A	-do
16G)	.
8F	il-
(16G	-la-
16A)	.
(16G	-ve-
16F)	.
8F	-ris.
=103-	=103-
8F	vir-
8F	-gi-
8F	-ni-
4A	-ta-
8G	-tem
(8F	e-
8G)	.
=104-	=104-
8G	-ti-
8G	-am
8G	cre-
8F	-a-
(16G	-tu-
8A)	.
(16G	.
16A)	.
(16G	.
8F)	.
=105-	=105-
(8G	-ra
8A)	.
(8G	com-
8A	.
8G)	.
8F	-men-
4F	-das.
=106-	=106-
1r	.
=107-	=107-
1r	.
=108-	=108-
1r	.
=109-	=109-
1r	.
=110-	=110-
1r	.
=111-	=111-
1r	.
=112-	=112-
1r	.
=113-	=113-
1r	.
=114-	=114-
1r	.
=115-	=115-
1r	.
=116-	=116-
1r	.
=117-	=117-
1r	.
=118-	=118-
1r	.
=119-	=119-
1r	.
=120-	=120-
1r	.
=121-	=121-
1r	.
=122-	=122-
1r	.
=123-	=123-
1r	.
=124-	=124-
1r	.
=125-	=125-
1r	.
=126-	=126-
1r	.
=127-	=127-
1r	.
=128-	=128-
1r	.
=129-	=129-
1r	.
=130-	=130-
1r	.
=131-	=131-
1r	.
=132-	=132-
1r	.
=133-	=133-
1r	.
=134-	=134-
1r	.
=135-	=135-
1r	.
=136-	=136-
1r	.
=137-	=137-
1r	.
=138-	=138-
1r	.
=139-	=139-
1r	.
=140-	=140-
1r	.
=141-	=141-
1r	.
=142-	=142-
1r	.
=143-	=143-
1r	.
=144-	=144-
1r	.
=145-	=145-
1r	.
=146-	=146-
1r	.
=147-	=147-
1r	.
=148-	=148-
1r	.
=149-	=149-
1r	.
=150-	=150-
1r	.
=151-	=151-
1r	.
=152-	=152-
1r	.
=153-	=153-
1r	.
=154-	=154-
1r	.
=155-	=155-
1r	.
=156-	=156-
1r	.
=157-	=157-
1r	.
=158-	=158-
1r	.
=159-	=159-
1r	.
=160-	=160-
1r	.
=161-	=161-
1r	.
=162-	=162-
1r	.
=163-	=163-
1r	.
=164-	=164-
1r	.
=165-	=165-
1r	.
=166-	=166-
1r	.
=167-	=167-
1r	.
=168-	=168-
1r	.
=169-	=169-
1r	.
=170-	=170-
1r	.
=171-	=171-
1r	.
=172-	=172-
1r	.
=173-	=173-
1r	.
=174-	=174-
1r	.
=175-	=175-
1r	.
=176-	=176-
1r	.
=177-	=177-
1r	.
=178-	=178-
1r	.
=179-	=179-
1r	.
=180-	=180-
1r	.
=181-	=181-
1r	.
=182-	=182-
1r	.
=183-	=183-
1r	.
=184-	=184-
1r	.
=185-	=185-
1r	.
=186-	=186-
1r	.
=187-	=187-
1r	.
=188-	=188-
1r	.
=189-	=189-
1r	.
=190-	=190-
1r	.
=191-	=191-
1r	.
=192-	=192-
1r	.
=193-	=193-
1r	.
=194-	=194-
1r	.
=195-	=195-
1r	.
=196-	=196-
1r	.
=197-	=197-
1r	.
=198-	=198-
1r	.
=199-	=199-
1r	.
=200-	=200-
1r	.
=201-	=201-
1r	.
=202-	=202-
1r	.
=203-	=203-
1r	.
=204-	=204-
1r	.
=205-	=205-
1r	.
=206-	=206-
1r	.
=207-	=207-
1r	.
=208-	=208-
1r	.
=209-	=209-
1r	.
=210-	=210-
1r	.
=211-	=211-
1r	.
=212-	=212-
1r	.
=213-	=213-
1r	.
=214-	=214-
1r	.
=215-	=215-
1r	.
=216-	=216-
1r	.
=217-	=217-
1r	.
=218-	=218-
1r	.
=219-	=219-
1r	.
=220-	=220-
1r	.
=221-	=221-
1r	.
=222-	=222-
1r	.
=223-	=223-
1r	.
=224-	=224-
1r	.
=225-	=225-
1r	.
=226-	=226-
1r	.
=227-	=227-
1r	.
=228-	=228-
1r	.
=229-	=229-
1r	.
=230-	=230-
1r	.
=231-	=231-
1r	.
=232-	=232-
1r	.
=233-	=233-
1r	.
=234-	=234-
1r	.
=235-	=235-
1r	.
=236-	=236-
1r	.
=237-	=237-
1r	.
=238-	=238-
1r	.
=239-	=239-
1r	.
=240-	=240-
1r	.
=241-	=241-
1r	.
=242-	=242-
1r	.
=243-	=243-
1r	.
=244-	=244-
1r	.
=245-	=245-
1r	.
=246-	=246-
1r	.
=247-	=247-
1r	.
=248-	=248-
1r	.
=249-	=249-
1r	.
=250-	=250-
1r	.
=251-	=251-
1r	.
=252-	=252-
1r	.
=253-	=253-
1r	.
=254-	=254-
1r	.
=255-	=255-
1r	.
=256-	=256-
1r	.
=257-	=257-
1r	.
=258-	=258-
1r	.
=259-	=259-
1r	.
=260-	=260-
1r	.
=261-	=261-
1r	.
=262-	=262-
1r	.
=263-	=263-
1r	.
=264-	=264-
1r	.
=265-	=265-
1r	.
=266-	=266-
1r	.
=267-	=267-
1r	.
=268-	=268-
1r	.
=269-	=269-
1r	.
=270-	=270-
1r	.
=271-	=271-
1r	.
=272-	=272-
1r	.
=273-	=273-
1r	.
=274-	=274-
1r	.
=275-	=275-
1r	.
=276-	=276-
1r	.
=277-	=277-
1r	.
=278-	=278-
1r	.
=279-	=279-
1r	.
=280-	=280-
1r	.
=281-	=281-
1r	.
=282-	=282-
1r	.
=283-	=283-
1r	.
=284-	=284-
1r	.
=285-	=285-
1r	.
=286-	=286-
1r	.
=287-	=287-
1r	.
=288-	=288-
1r	.
=289-	=289-
1r	.
=290-	=290-
1r	.
=291-	=291-
1r	.
=292-	=292-
1r	.
=293-	=293-
1r	.
=294-	=294-
1r	.
=295-	=295-
1r	.
=296-	=296-
1r	.
=297-	=297-
1r	.
=298-	=298-
1r	.
=299-	=299-
1r	.
=300-	=300-
1r	.
=301-	=301-
1r	.
=302-	=302-
1r	.
=303-	=303-
1r	.
=304-	=304-
1r	.
=305-	=305-
1r	.
=306-	=306-
1r	.
=307-	=307-
1r	.
=308-	=308-
1r	.
=309-	=309-
1r	.
=310-	=310-
1r	.
=311-	=311-
1r	.
=312-	=312-
1r	.
=313-	=313-
1r	.
=314-	=314-
1r	.
=315-	=315-
1r	.
=316-	=316-
1r	.
=317-	=317-
1r	.
=318-	=318-
1r	.
=319-	=319-
1r	.
=320-	=320-
1r	.
=321-	=321-
1r	.
=322-	=322-
1r	.
=323-	=323-
1r	.
=324-	=324-
1r	.
=325-	=325-
1r	.
=326-	=326-
1r	.
=327-	=327-
1r	.
=328-	=328-
1r	.
=329-	=329-
1r	.
=330-	=330-
1r	.
=331-	=331-
1r	.
=332-	=332-
1r	.
=333-	=333-
1r	.
=334-	=334-
1r	.
=335-	=335-
1r	.
=336-	=336-
1r	.
=337-	=337-
1r	.
=338-	=338-
1r	.
=339-	=339-
1r	.
=340-	=340-
1r	.
=341-	=341-
1r	.
=342-	=342-
1r	.
=343-	=343-
1r	.
=344-	=344-
1r	.
=345-	=345-
1r	.
=346-	=346-
1r	.
=347-	=347-
1r	.
=348-	=348-
1r	.
=349-	=349-
1r	.
=350-	=350-
1r	.
=351-	=351-
1r	.
=352-	=352-
1r	.
=353-	=353-
1r	.
=354-	=354-
1r	.
=355-	=355-
1r	.
=356-	=356-
1r	.
=357-	=357-
1r	.
=358-	=358-
1r	.
=359-	=359-
1r	.
=360-	=360-
1r	.
=361-	=361-
1r	.
=362-	=362-
1r	.
=363-	=363-
1r	.
=364-	=364-
1r	.
=365-	=365-
1r	.
=366-	=366-
1r	.
=367-	=367-
1r	.
=368-	=368-
1r	.
=369-	=369-
1r	.
=370-	=370-
1r	.
=371-	=371-
1r	.
=372-	=372-
1r	.
=373-	=373-
1r	.
=374-	=374-
1r	.
=375-	=375-
1r	.
=376-	=376-
1r	.
==	==
*-	*-
!!!hum2abc: -p "%%nostems" -M none
!!!ENC: Elsa De Luca
!!!RWG: Rhythms and barlines are for alignment only, not found in source.
!!!YEC: Copyright 2009, Elsa De Luca
!!!title: @{OTL}, @{SMS}
